; generated by PrusaSlicer 2.3.1+win64 on 2021-05-09 at 16:11:04 UTC

; 

; external perimeters extrusion width = 0.45mm
; perimeters extrusion width = 0.45mm
; infill extrusion width = 0.45mm
; solid infill extrusion width = 0.45mm
; top infill extrusion width = 0.45mm
; first layer extrusion width = 0.42mm

M73 P0 R23
M201 X9000 Y9000 Z500 E10000 ; sets maximum accelerations, mm/sec^2
M203 X500 Y500 Z12 E120 ; sets maximum feedrates, mm/sec
M204 P2000 R1500 T2000 ; sets acceleration (P, T) and retract acceleration (R), mm/sec^2
M205 X10.00 Y10.00 Z0.20 E2.50 ; sets the jerk limits, mm/sec
M205 S0 T0 ; sets the minimum extruding and travel feed rate, mm/sec
M107
;TYPE:Custom
M862.3 P "MK2S" ; printer model check
M862.1 P0.4 ; nozzle diameter check
M115 U3.2.3 ; tell printer latest fw version
G90 ; use absolute coordinates
M83 ; extruder relative mode
M204 S2000 T1500 ; MK2 firmware only supports the old M204 format
M104 S215 ; set extruder temp
M140 S60 ; set bed temp
M190 S60 ; wait for bed temp
M109 S215 ; wait for extruder temp
G28 W ; home all without mesh bed level
G80 ; mesh bed leveling
G1 Y-3.0 F1000.0 ; go outside print area
G92 E0.0
G1 X60.0 E9.0  F1000.0 ; intro line
G1 X100.0 E12.5 F1000.0 ; intro line
G92 E0.0
G21 ; set units to millimeters
G90 ; use absolute coordinates
M83 ; use relative distances for extrusion
M900 K0.05 ; Filament gcode LA 1.5
M900 K30 ; Filament gcode LA 1.0
;LAYER_CHANGE
;Z:0.2
;HEIGHT:0.2
;BEFORE_LAYER_CHANGE
G92 E0.0
;0.2


G1 E-0.80000 F2100.000
G1 Z0.400 F10800.000
;AFTER_LAYER_CHANGE
;0.2
G1 X113.602 Y84.695
G1 Z0.200
G1 E0.80000 F2100.000
M204 S1000
;TYPE:Skirt
;WIDTH:0.42
G1 F1200.000
G1 X114.071 Y84.279 E0.01965
G1 X114.632 Y84.000 E0.01965
G1 X115.250 Y83.878 E0.01977
G1 X134.604 Y83.873 E0.60681
G1 X135.485 Y84.044 E0.02813
G1 X136.240 Y84.529 E0.02813
G1 X136.759 Y85.256 E0.02802
G1 X136.974 Y86.127 E0.02813
G1 X136.977 Y123.765 E1.18012
G1 X136.916 Y124.286 E0.01645
G1 X136.742 Y124.781 E0.01645
G1 X136.390 Y125.314 E0.02000
G1 X135.913 Y125.731 E0.01989
G1 X135.343 Y126.008 E0.01989
G1 X134.719 Y126.124 E0.01989
G1 X115.373 Y126.127 E0.60657
G1 X114.856 Y126.064 E0.01633
G1 X114.369 Y125.892 E0.01621
G1 X113.828 Y125.533 E0.02036
G1 X113.404 Y125.041 E0.02036
G1 X113.129 Y124.453 E0.02036
G1 X113.024 Y123.816 E0.02024
G1 X113.023 Y86.235 E1.17833
G1 X113.084 Y85.714 E0.01645
G1 X113.258 Y85.219 E0.01645
G1 X113.569 Y84.745 E0.01777
; printing object body.stl id:0 copy 0
;WIPE_START
G1 F8640.000
G1 X114.071 Y84.279 E-0.15811
G1 X114.632 Y84.000 E-0.14470
G1 X115.250 Y83.878 E-0.14557
G1 X116.600 Y83.877 E-0.31162
;WIPE_END
G1 E-0.04000 F2100.000
G1 Z0.600 F10800.000
G1 X124.090 Y115.682
M73 P1 R23
G1 Z0.200
G1 E0.80000 F2100.000
;TYPE:Perimeter
G1 F1200.000
G1 X124.567 Y115.548 E0.01553
G1 X125.029 Y115.512 E0.01453
G1 X125.322 Y115.532 E0.00921
G1 X125.793 Y115.639 E0.01516
G1 X126.245 Y115.843 E0.01555
G1 X126.648 Y116.133 E0.01555
G1 X126.985 Y116.496 E0.01555
G1 X127.244 Y116.920 E0.01555
G1 X127.413 Y117.386 E0.01555
G1 X127.487 Y117.876 E0.01555
G1 X127.462 Y118.371 E0.01555
G1 X127.340 Y118.852 E0.01555
G1 X127.125 Y119.299 E0.01555
G1 X126.825 Y119.694 E0.01555
G1 X126.454 Y120.022 E0.01555
G1 X126.024 Y120.270 E0.01555
G1 X125.554 Y120.428 E0.01555
G1 X125.062 Y120.489 E0.01555
G1 X124.568 Y120.452 E0.01555
G1 X124.090 Y120.318 E0.01555
G1 X123.649 Y120.092 E0.01555
G1 X123.261 Y119.783 E0.01555
G1 X122.942 Y119.403 E0.01555
G1 X122.705 Y118.967 E0.01555
G1 X122.559 Y118.493 E0.01555
G1 X122.510 Y118.000 E0.01555
G1 X122.559 Y117.507 E0.01555
G1 X122.705 Y117.033 E0.01555
G1 X122.942 Y116.597 E0.01555
G1 X123.261 Y116.217 E0.01555
G1 X123.649 Y115.908 E0.01555
G1 X124.037 Y115.709 E0.01367
G1 X124.209 Y116.045 F10800.000
;TYPE:External perimeter
G1 F1200.000
G1 X124.633 Y115.921 E0.01386
G1 X125.031 Y115.890 E0.01250
G1 X125.267 Y115.906 E0.00742
G1 X125.672 Y115.999 E0.01304
G1 X126.056 Y116.172 E0.01318
G1 X126.397 Y116.417 E0.01318
G1 X126.683 Y116.725 E0.01318
G1 X126.902 Y117.084 E0.01318
G1 X127.046 Y117.479 E0.01318
G1 X127.109 Y117.895 E0.01318
G1 X127.088 Y118.315 E0.01318
G1 X126.984 Y118.722 E0.01318
G1 X126.802 Y119.101 E0.01318
G1 X126.548 Y119.436 E0.01318
G1 X126.232 Y119.714 E0.01318
G1 X125.868 Y119.924 E0.01318
G1 X125.470 Y120.058 E0.01318
G1 X125.053 Y120.111 E0.01318
G1 X124.633 Y120.079 E0.01318
G1 X124.229 Y119.965 E0.01318
G1 X123.855 Y119.774 E0.01318
G1 X123.526 Y119.511 E0.01318
G1 X123.256 Y119.189 E0.01318
G1 X123.054 Y118.820 E0.01318
G1 X122.931 Y118.418 E0.01318
G1 X122.889 Y118.000 E0.01318
G1 X122.931 Y117.582 E0.01318
G1 X123.054 Y117.180 E0.01318
G1 X123.256 Y116.811 E0.01318
G1 X123.526 Y116.489 E0.01318
G1 X123.855 Y116.226 E0.01318
G1 X124.155 Y116.072 E0.01060
G1 X124.265 Y115.649 F10800.000
;WIPE_START
G1 F8640.000
G1 X124.633 Y115.921 E-0.11571
G1 X125.031 Y115.890 E-0.09207
G1 X125.267 Y115.906 E-0.05466
G1 X125.672 Y115.999 E-0.09605
G1 X126.056 Y116.172 E-0.09708
G1 X126.397 Y116.417 E-0.09708
G1 X126.683 Y116.725 E-0.09708
G1 X126.902 Y117.084 E-0.09708
G1 X126.922 Y117.138 E-0.01320
;WIPE_END
G1 E-0.04000 F2100.000
G1 Z0.600 F10800.000
G1 X125.062 Y94.489
G1 Z0.200
G1 E0.80000 F2100.000
;TYPE:Perimeter
G1 F1200.000
G1 X124.568 Y94.452 E0.01555
G1 X124.090 Y94.318 E0.01555
G1 X123.649 Y94.092 E0.01555
G1 X123.261 Y93.783 E0.01555
G1 X122.942 Y93.403 E0.01555
G1 X122.705 Y92.967 E0.01555
G1 X122.559 Y92.493 E0.01555
G1 X122.510 Y92.000 E0.01555
G1 X122.559 Y91.507 E0.01555
G1 X122.705 Y91.033 E0.01555
G1 X122.942 Y90.597 E0.01555
G1 X123.261 Y90.217 E0.01555
G1 X123.649 Y89.908 E0.01555
G1 X124.090 Y89.682 E0.01555
G1 X124.567 Y89.548 E0.01553
G1 X125.029 Y89.512 E0.01453
G1 X125.322 Y89.532 E0.00921
G1 X125.793 Y89.639 E0.01516
G1 X126.245 Y89.843 E0.01555
G1 X126.648 Y90.133 E0.01555
G1 X126.985 Y90.496 E0.01555
G1 X127.244 Y90.920 E0.01555
G1 X127.413 Y91.386 E0.01555
G1 X127.487 Y91.876 E0.01555
G1 X127.462 Y92.371 E0.01555
G1 X127.340 Y92.852 E0.01555
G1 X127.125 Y93.299 E0.01555
G1 X126.825 Y93.694 E0.01555
G1 X126.454 Y94.022 E0.01555
G1 X126.024 Y94.270 E0.01555
G1 X125.554 Y94.428 E0.01555
G1 X125.122 Y94.482 E0.01367
G1 X125.075 Y94.108 F10800.000
;TYPE:External perimeter
G1 F1200.000
G1 X124.633 Y94.079 E0.01387
G1 X124.229 Y93.965 E0.01318
G1 X123.855 Y93.774 E0.01318
G1 X123.526 Y93.511 E0.01318
G1 X123.256 Y93.189 E0.01318
G1 X123.054 Y92.820 E0.01318
G1 X122.931 Y92.418 E0.01318
G1 X122.889 Y92.000 E0.01318
G1 X122.931 Y91.582 E0.01318
G1 X123.054 Y91.180 E0.01318
G1 X123.256 Y90.811 E0.01318
G1 X123.526 Y90.489 E0.01318
G1 X123.855 Y90.226 E0.01318
G1 X124.229 Y90.035 E0.01318
G1 X124.633 Y89.921 E0.01318
G1 X125.031 Y89.890 E0.01250
G1 X125.267 Y89.906 E0.00742
G1 X125.672 Y89.999 E0.01304
G1 X126.056 Y90.172 E0.01318
G1 X126.397 Y90.417 E0.01318
G1 X126.683 Y90.725 E0.01318
G1 X126.902 Y91.084 E0.01318
G1 X127.046 Y91.479 E0.01318
G1 X127.109 Y91.895 E0.01318
G1 X127.088 Y92.315 E0.01318
G1 X126.984 Y92.722 E0.01318
G1 X126.802 Y93.101 E0.01318
G1 X126.548 Y93.436 E0.01318
G1 X126.232 Y93.714 E0.01318
G1 X125.868 Y93.924 E0.01318
G1 X125.470 Y94.058 E0.01318
G1 X125.134 Y94.100 E0.01060
G1 X124.886 Y94.461 F10800.000
;WIPE_START
G1 F8640.000
G1 X124.633 Y94.079 E-0.11576
G1 X124.229 Y93.965 E-0.09708
G1 X123.855 Y93.774 E-0.09708
G1 X123.526 Y93.511 E-0.09708
G1 X123.256 Y93.189 E-0.09708
G1 X123.054 Y92.820 E-0.09708
G1 X122.931 Y92.418 E-0.09708
G1 X122.904 Y92.152 E-0.06176
;WIPE_END
G1 E-0.04000 F2100.000
G1 Z0.600 F10800.000
G1 X133.813 Y87.037
G1 Z0.200
G1 E0.80000 F2100.000
;TYPE:Perimeter
G1 F1200.000
G1 X133.813 Y122.963 E1.12643
G1 X116.187 Y122.963 E0.55265
G1 X116.187 Y87.037 E1.12643
G1 X133.753 Y87.037 E0.55076
G1 X134.190 Y86.660 F10800.000
;TYPE:External perimeter
G1 F1200.000
G1 X134.190 Y123.340 E1.15008
G1 X115.810 Y123.340 E0.57629
G1 X115.810 Y86.660 E1.15008
M73 P2 R23
G1 X134.130 Y86.660 E0.57441
G1 X134.128 Y87.055 F10800.000
;WIPE_START
G1 F8640.000
G1 X134.135 Y89.951 E-0.76000
;WIPE_END
G1 E-0.04000 F2100.000
G1 Z0.600 F10800.000
G1 X133.700 Y87.918
G1 Z0.200
G1 E0.80000 F2100.000
;TYPE:Solid infill
;WIDTH:0.422719
G1 F1200.000
G1 X133.101 Y87.320 E0.02672
G1 X132.564 Y87.320 E0.01696
G1 X133.530 Y88.286 E0.04313
G1 X133.530 Y88.823 E0.01696
G1 X132.027 Y87.320 E0.06712
G1 X131.490 Y87.320 E0.01696
G1 X133.530 Y89.360 E0.09111
G1 X133.530 Y89.897 E0.01696
G1 X130.953 Y87.320 E0.11510
G1 X130.416 Y87.320 E0.01696
G1 X133.530 Y90.434 E0.13909
G1 X133.530 Y90.971 E0.01696
G1 X129.879 Y87.320 E0.16308
G1 X129.342 Y87.320 E0.01696
G1 X133.530 Y91.508 E0.18706
G1 X133.530 Y92.045 E0.01696
G1 X128.805 Y87.320 E0.21105
G1 X128.267 Y87.320 E0.01696
G1 X133.530 Y92.583 E0.23504
G1 X133.530 Y93.120 E0.01696
G1 X127.730 Y87.320 E0.25903
G1 X127.193 Y87.320 E0.01696
G1 X133.530 Y93.657 E0.28302
G1 X133.530 Y94.194 E0.01696
G1 X126.656 Y87.320 E0.30701
G1 X126.119 Y87.320 E0.01696
G1 X133.530 Y94.731 E0.33099
G1 X133.530 Y95.268 E0.01696
G1 X125.582 Y87.320 E0.35498
G1 X125.045 Y87.320 E0.01696
G1 X133.530 Y95.805 E0.37897
G1 X133.530 Y96.342 E0.01696
G1 X124.508 Y87.320 E0.40296
G1 X123.970 Y87.320 E0.01696
G1 X126.133 Y89.483 E0.09659
G1 X126.387 Y89.597 E0.00880
G1 X126.836 Y89.920 E0.01745
G1 X127.212 Y90.325 E0.01745
G1 X127.500 Y90.796 E0.01745
G1 X127.530 Y90.879 E0.00280
G1 X133.530 Y96.880 E0.26797
M73 P2 R22
G1 X133.530 Y97.417 E0.01696
G1 X127.735 Y91.621 E0.25883
G1 X127.771 Y91.862 E0.00768
G1 X127.755 Y92.179 E0.01003
G1 X133.530 Y97.954 E0.25792
G1 X133.530 Y98.491 E0.01696
G1 X127.684 Y92.645 E0.26107
G1 X127.607 Y92.949 E0.00990
G1 X127.556 Y93.054 E0.00369
G1 X133.530 Y99.028 E0.26679
G1 X133.530 Y99.565 E0.01696
G1 X127.382 Y93.417 E0.27459
G1 X127.155 Y93.727 E0.01214
G1 X133.530 Y100.102 E0.28472
G1 X133.530 Y100.639 E0.01696
G1 X126.898 Y94.007 E0.29621
G1 X126.611 Y94.258 E0.01202
G1 X133.530 Y101.176 E0.30901
G1 X133.530 Y101.714 E0.01696
G1 X126.271 Y94.454 E0.32422
G1 X126.141 Y94.529 E0.00472
G1 X125.892 Y94.613 E0.00830
G1 X133.530 Y102.251 E0.34113
G1 X133.530 Y102.788 E0.01696
G1 X125.466 Y94.724 E0.36015
M73 P3 R22
G1 X125.069 Y94.774 E0.01264
G1 X124.971 Y94.766 E0.00309
G1 X133.530 Y103.325 E0.38224
G1 X133.530 Y103.862 E0.01696
G1 X124.109 Y94.441 E0.42076
;WIPE_START
G1 F8640.000
G1 X126.436 Y96.768 E-0.76000
;WIPE_END
G1 E-0.04000 F2100.000
G1 Z0.600 F10800.000
G1 X125.591 Y89.477
G1 Z0.200
G1 E0.80000 F2100.000
G1 F1200.000
G1 X123.433 Y87.320 E0.09635
G1 X122.896 Y87.320 E0.01696
G1 X124.821 Y89.245 E0.08596
G1 X124.517 Y89.268 E0.00962
G1 X124.353 Y89.314 E0.00538
G1 X122.359 Y87.320 E0.08906
G1 X121.822 Y87.320 E0.01696
G1 X123.942 Y89.440 E0.09469
G1 X123.587 Y89.622 E0.01260
G1 X121.285 Y87.320 E0.10282
G1 X120.748 Y87.320 E0.01696
G1 X123.274 Y89.846 E0.11281
G1 X123.063 Y90.014 E0.00852
G1 X122.991 Y90.100 E0.00354
G1 X120.211 Y87.320 E0.12416
G1 X119.674 Y87.320 E0.01696
G1 X122.746 Y90.392 E0.13720
G1 X122.548 Y90.731 E0.01240
G1 X119.136 Y87.320 E0.15235
G1 X118.599 Y87.320 E0.01696
G1 X122.386 Y91.107 E0.16914
G1 X122.281 Y91.450 E0.01134
G1 X122.273 Y91.530 E0.00254
G1 X118.062 Y87.320 E0.18804
G1 X117.525 Y87.320 E0.01696
G1 X122.228 Y92.023 E0.21003
G1 X122.281 Y92.550 E0.01673
G1 X122.309 Y92.640 E0.00300
G1 X116.988 Y87.320 E0.23762
G1 X116.470 Y87.320 E0.01636
G1 X116.470 Y87.339 E0.00060
G1 X133.530 Y104.399 E0.76194
G1 X133.530 Y104.936 E0.01696
G1 X116.470 Y87.876 E0.76194
G1 X116.470 Y88.413 E0.01696
G1 X133.530 Y105.473 E0.76194
G1 X133.530 Y106.011 E0.01696
G1 X116.470 Y88.950 E0.76194
G1 X116.470 Y89.487 E0.01696
G1 X133.530 Y106.548 E0.76194
G1 X133.530 Y107.085 E0.01696
G1 X116.470 Y90.025 E0.76194
G1 X116.470 Y90.562 E0.01696
G1 X133.530 Y107.622 E0.76194
G1 X133.530 Y108.159 E0.01696
M73 P4 R22
G1 X116.470 Y91.099 E0.76194
G1 X116.470 Y91.636 E0.01696
G1 X133.530 Y108.696 E0.76194
G1 X133.530 Y109.233 E0.01696
G1 X116.470 Y92.173 E0.76194
G1 X116.470 Y92.710 E0.01696
G1 X133.530 Y109.770 E0.76194
G1 X133.530 Y110.307 E0.01696
G1 X116.470 Y93.247 E0.76194
G1 X116.470 Y93.784 E0.01696
G1 X133.530 Y110.845 E0.76194
G1 X133.530 Y111.382 E0.01696
G1 X116.470 Y94.321 E0.76194
G1 X116.470 Y94.859 E0.01696
G1 X133.530 Y111.919 E0.76194
G1 X133.530 Y112.456 E0.01696
G1 X116.470 Y95.396 E0.76194
G1 X116.470 Y95.933 E0.01696
G1 X133.530 Y112.993 E0.76194
G1 X133.530 Y113.530 E0.01696
G1 X116.470 Y96.470 E0.76194
G1 X116.470 Y97.007 E0.01696
G1 X133.530 Y114.067 E0.76194
M73 P5 R22
G1 X133.530 Y114.604 E0.01696
G1 X116.470 Y97.544 E0.76194
G1 X116.470 Y98.081 E0.01696
G1 X133.530 Y115.142 E0.76194
G1 X133.530 Y115.679 E0.01696
G1 X116.470 Y98.618 E0.76194
G1 X116.470 Y99.155 E0.01696
G1 X133.530 Y116.216 E0.76194
G1 X133.530 Y116.753 E0.01696
G1 X116.470 Y99.693 E0.76194
G1 X116.470 Y100.230 E0.01696
G1 X133.530 Y117.290 E0.76194
G1 X133.530 Y117.827 E0.01696
G1 X116.470 Y100.767 E0.76194
G1 X116.470 Y101.304 E0.01696
G1 X133.530 Y118.364 E0.76194
G1 X133.530 Y118.901 E0.01696
G1 X116.470 Y101.841 E0.76194
G1 X116.470 Y102.378 E0.01696
G1 X133.530 Y119.438 E0.76194
G1 X133.530 Y119.976 E0.01696
G1 X116.470 Y102.915 E0.76194
M73 P6 R22
G1 X116.470 Y103.452 E0.01696
G1 X133.530 Y120.513 E0.76194
G1 X133.530 Y121.050 E0.01696
G1 X116.470 Y103.990 E0.76194
G1 X116.470 Y104.527 E0.01696
G1 X133.530 Y121.587 E0.76194
G1 X133.530 Y122.124 E0.01696
G1 X116.470 Y105.064 E0.76194
G1 X116.470 Y105.601 E0.01696
G1 X133.530 Y122.661 E0.76194
G1 X133.530 Y122.680 E0.00060
G1 X133.012 Y122.680 E0.01636
G1 X127.696 Y117.364 E0.23742
G1 X127.771 Y117.862 E0.01589
G1 X127.766 Y117.971 E0.00345
G1 X132.475 Y122.680 E0.21032
G1 X131.938 Y122.680 E0.01696
G1 X127.729 Y118.471 E0.18798
G1 X127.620 Y118.899 E0.01395
G1 X131.401 Y122.680 E0.16886
G1 X130.864 Y122.680 E0.01696
G1 X127.453 Y119.269 E0.15233
G1 X127.367 Y119.447 E0.00621
G1 X127.249 Y119.603 E0.00619
G1 X130.326 Y122.680 E0.13743
G1 X129.789 Y122.680 E0.01696
G1 X127.014 Y119.905 E0.12395
G1 X126.729 Y120.157 E0.01202
G1 X129.252 Y122.680 E0.11271
G1 X128.715 Y122.680 E0.01696
G1 X126.409 Y120.374 E0.10299
G1 X126.141 Y120.529 E0.00977
G1 X126.056 Y120.558 E0.00285
G1 X128.178 Y122.680 E0.09479
G1 X127.641 Y122.680 E0.01696
G1 X125.653 Y120.693 E0.08876
G1 X125.183 Y120.759 E0.01501
G1 X127.104 Y122.680 E0.08578
G1 X126.567 Y122.680 E0.01696
G1 X124.413 Y120.526 E0.09619
;WIPE_START
G1 F8640.000
G1 X126.567 Y122.680 E-0.70329
G1 X126.812 Y122.680 E-0.05671
;WIPE_END
G1 E-0.04000 F2100.000
G1 Z0.600 F10800.000
G1 X125.892 Y115.560
G1 Z0.200
G1 E0.80000 F2100.000
G1 F1200.000
G1 X116.470 Y106.138 E0.42079
G1 X116.470 Y106.675 E0.01696
G1 X125.024 Y115.229 E0.38202
G1 X124.525 Y115.267 E0.01579
G1 X116.470 Y107.212 E0.35975
G1 X116.470 Y107.749 E0.01696
G1 X124.105 Y115.384 E0.34098
M73 P6 R21
G1 X123.986 Y115.417 E0.00388
G1 X123.731 Y115.548 E0.00905
G1 X116.470 Y108.286 E0.32431
G1 X116.470 Y108.824 E0.01696
G1 X123.395 Y115.749 E0.30929
M73 P7 R21
G1 X123.096 Y115.987 E0.01207
G1 X116.470 Y109.361 E0.29594
G1 X116.470 Y109.898 E0.01696
G1 X122.845 Y116.273 E0.28473
G1 X122.708 Y116.437 E0.00676
G1 X122.625 Y116.590 E0.00549
G1 X116.470 Y110.435 E0.27488
G1 X116.470 Y110.972 E0.01696
G1 X122.438 Y116.940 E0.26654
G1 X122.311 Y117.351 E0.01357
G1 X116.470 Y111.509 E0.26089
G1 X116.470 Y112.046 E0.01696
G1 X122.244 Y117.820 E0.25786
G1 X122.226 Y118.000 E0.00571
G1 X122.263 Y118.377 E0.01196
G1 X116.470 Y112.583 E0.25874
G1 X116.470 Y113.121 E0.01696
G1 X122.463 Y119.114 E0.26766
G1 X122.708 Y119.563 E0.01616
G1 X123.063 Y119.986 E0.01745
G1 X123.495 Y120.331 E0.01745
G1 X123.875 Y120.526 E0.01349
G1 X126.029 Y122.680 E0.09623
G1 X125.492 Y122.680 E0.01696
G1 X116.470 Y113.658 E0.40296
G1 X116.470 Y114.195 E0.01696
G1 X124.955 Y122.680 E0.37897
G1 X124.418 Y122.680 E0.01696
G1 X116.470 Y114.732 E0.35498
G1 X116.470 Y115.269 E0.01696
G1 X123.881 Y122.680 E0.33099
G1 X123.344 Y122.680 E0.01696
G1 X116.470 Y115.806 E0.30700
G1 X116.470 Y116.343 E0.01696
G1 X122.807 Y122.680 E0.28301
G1 X122.270 Y122.680 E0.01696
G1 X116.470 Y116.880 E0.25903
G1 X116.470 Y117.417 E0.01696
